X:1
T:James Gibb editions
T:Chi la gagliara - Donato
T:#
%%score [ 1 2 3 4 ]
L:1/8
Q:1/4=160
M:2/2
K:Ab
V:1 treble nm="Soprano" snm="S"
V:2 treble nm="Alto" snm="A"
V:3 treble-8 nm="Tenor" snm="T"
V:4 bass nm="Bass" snm="B"
V:1
"^Chi la gagliarda""^Baldassare Donato\n(1530-1603)" z4 z2 e2 |: e2 e2 e4 | c4 z2 A2 | A2 A2 c4 | %4
w: Chi|la ga- gliar-|da, chi|la ga- gliar-|
 c2 B4 A2 |[M:2/2] F2 A2 (A2 G2) |1 A4 z2 e2 :|2 A4 c4 || d4 B4 | c6 c2 ||[M:3/4] B4 G2 | A4 G2 | %12
w: da, don- ne,|vo'im- pa- ra\- *|re? Chi|re? Ve-|ni- te~a|noi che|sia- mo|ma- stri|
[M:3/4] B4 c2 | c4 d2 | B4 c2 | c4 e2 | =d4 ||[M:2/2] e2 B4 B2 | e3 d c2 c2 |[M:2/2] d4 B2 e2- | %20
w: fi- ni,|ma- stri|fi- ni,|ma- stri|fi-|ni. Che di|se- ra~e di mat-|ti- na mai|
 e2 A2 c4 | B2 B4 B2 | e6 d2 | c2 B2 (B2 =A2) ||[M:3/4] x6 |[M:3/4] B6 | c2 c2 d2 | e3 e e2 | %28
w: * man- chia-|mo, mai man-|chia- mo|di so- na\- *||re:|tan tan tan|ta- ri- ra,|
 c2 A2 B2 | c3 B c2 | d2 c2 d2 | e4 c2 | e4 d2 | c3 B A2 | B2 A2 G2 | A4 c2 | e4 d2 | c3 B A2 | %38
w: tan tan tan|ta- ri- ra,|ri- ra- ri-|ra, tan|tan tan|ta- ri- ra,|ri- ra- ri-|ra, tan|tan tan|ta- ri- ra,|
 B2 A2 G2 | !fermata!A12 |] %40
w: ri- ra- ri-|ra.|
V:2
 E4 E2 E2 |: A4 G4 | z2 C2 C2 C2 | F4 E2 E2- | E2 G4 A2- |[M:2/2] A2 F2 E4 |1 E2 E2 E2 E2 :|2 %7
w: Chi la ga-|gliar- da,|chi la ga-|gliar- da, don\-|* ne, vo'im\-|* pa- ra-|re? Chi la ga\-|
 E4 E4 || B4 G4 | (A3 G/F/) E2 A2 ||[M:3/4] F4 E2 | E4 E2 |[M:3/4] F4 A2 | A4 F2 | G4 A2- | %15
w: re? Ve-|ni- te~a|no\- * * i che|sia- mo|ma- stri|fi- ni,|ma- stri|fi- ni,|
 A2 A2 G2 | B4 ||[M:2/2] G4 G4- | G2 G2 A3 G |[M:2/2] F2 F2 G4 | E2 E4 A2 | F4 G2 G2- | %22
w: * ma- stri|fi-|ni. Che|* di se- ra~e|di mat- ti-|na mai man-|chia- mo, mai|
 G2 G2 E2 A2 | A2 F2 F4 ||[M:3/4] x6 |[M:3/4] F6 | A2 A2 F2 | A3 A G2 | E2 F2 G2 | A3 G A2 | %30
w: * man- chia- mo|di so- na-||re:|tan tan tan|ta- ri- ra,|tan tan tan|ta- ri- ra,|
 A2 A2 F2 | A4 A2 | G4 A2 | A3 F F2 | F2 E2 E2 | E4 E2 | G4 A2 | A3 F F2 | F2 E2 E2 | %39
w: ri- ra- ri-|ra, tan|tan tan|ta- ri- ra,|ri- ra- ri-|ra, tan|tan tan|ta- ri- ra,|ri- ra- ri-|
 !fermata!E12 |] %40
w: ra.|
V:3
 z4 c4 |: c2 c2 B4 | A2 A2 A2 A2 | d4 c4 | e6 c2 |[M:2/2][K:treble-8] d2 d2 B4 |1 A4 c4 :|2 %7
w: Chi|la ga- gliar-|da, chi la ga-|gliar- da,|don- ne,|vo'im- pa- ra-|re? Chi|
 c4 c4 || f4 e4 | e4 c4 ||[M:3/4] d4 B2 | c4 c2 |[M:3/4][K:treble-8] d4 e2 | f4 f2 | e4 e2 | %15
w: re? Ve-|ni- te~a|noi che|sia- mo|ma- stri|fi- ni,|ma- stri|fi- ni,|
 e4 e2 | f4 ||[M:2/2] e4 B4 | B2 c3 B A2 |[M:2/2][K:treble-8] A2 B4 B2 | c6 A2 | d4 B2 B2- | %22
w: ma- stri|fi-|ni. Che|di se- ra~e di|mat- ti- na|mai man-|chia- mo, mai|
 B2 B2 c2 f2 | e2 d2 c4 ||[M:3/4] x6 |[M:3/4][K:treble-8] B6 | e2 f2 d2 | c3 c B2 | c2 c2 d2 | %29
w: * man- chia- mo|di so- na-||re:|tan tan tan|ta- ri- ra,|tan tan tan|
 e3 e e2 | f2 e2 d2 | c4 c2 | B4 f2 | e3 d c2 | d2 B2 B2 | c4 c2 | B4 f2 | e3 d c2 | d2 B2 B2 | %39
w: ta- ri- ra,|ri- ra- ri-|ra, tan|tan tan|ta- ri- ra,|ri- ra- ri-|ra, tan|tan tan|ta- ri- ra,|ri- ra- ri-|
 !fermata!A12 |] %40
w: ra.|
V:4
 z2 A,2 A,2 A,2 |: A,4 E,4 | z2 F,2 F,2 F,2 | (D,E,F,G, A,4) | A,2 E,4 F,2 |[M:2/2] D,2 D,2 E,4 |1 %6
w: Chi la ga-|gliar- da,|chi la ga-|gliar\- * * * *|da, don- ne,|vo'im- pa- ra-|
 A,,2 A,2 A,2 A,2 :|2 A,,4 A,4 || B,4 E,4 | A,6 F,2 ||[M:3/4] B,4 E,2 | A,4 C2 |[M:3/4] B,4 F,2- | %13
w: re? Chi la ga\-|re? Ve-|ni- te~a|noi che|sia- mo|ma\-stri fi-|ni, ma\-|
 F,2 F,2 B,,2 | E,4 A,,2 | A,4 C2 | B,4 ||[M:2/2] E,4 E,4- | E,2 C,2 F,3 E, |[M:2/2] D,2 B,,2 E,4 | %20
w: * stri *|fi- ni,|ma- stri|fi-|ni. Che|* di se- ra~e|di mat- ti-|
 A,2 A,4 F,2 | B,4 E,2 E,2- | E,2 E,2 A,2 F,2 | A,2 B,2 F,4 ||[M:3/4] x6 |[M:3/4] B,6 | %26
w: na mai man-|chia- mo, mai|* man- chia- mo|di so- na-||re:|
 A,2 F,2 B,2 | A,3 A, E,2 | A,2 F,2 B,2 | A,3 E, A,2 | D,2 A,2 B,2 | A,4 A,2 | E,4 F,2 | %33
w: tan tan tan|ta- ri- ra,|tan tan tan|ta- ri- ra,|ri- ra- ri-|ra, tan|tan tan|
 A,3 B, F,2 | D,2 E,2 E,2 | A,,4 A,2 | E,4 F,2 | A,3 B, F,2 | D,2 E,2 E,2 | !fermata!A,,12 |] %40
w: ta- ri- ra,|ri- ra- ri-|ra, tan|tan tan|ta- ri- ra,|ri- ra- ri-|ra.|

